X: 1120
T: Scotch Tune.
%R: slow march
B: Henry Playford "Apollo's Banquet", London 1687 (5th Edition)
F: https://archive.org/details/apollosbanquetco01rugg
Z: 2017 John Chambers <jc:trillian.mit.edu>
M: 3/2
L: 1/8
K: G
% - - - - - - - - - -
D2 |\
G2B2 (AG) E4 D2 | E2G2 G2 g4 d2 |\
e2g2 (ab) g3e (dB) | A>B (ef) (ed) d4 :|
|: e2 |\
g2G2 A2 c2(cd) (ed) | d3B (AG) E4 G>A |\
B2(AG) (cd) e2b2 a2 | g3e (de) g4 |]
% - - - - - - - - - -

%%sep 1 1 500
%%sep 1 1 500

